vendor/shopware/storefront/Resources/app/storefront/dist/assets/icon/default/align-center.svg

<svg xmlns="http://www.w3.org/2000/svg" width="24" height="24" viewBox="0 0 24 24">
  <path fill="#758CA3" fill-rule="evenodd" d="M4,5 C3.44771525,5 3,4.55228475 3,4 C3,3.44771525 3.44771525,3 4,3 L20,3 C20.5522847,3 21,3.44771525 21,4 C21,4.55228475 20.5522847,5 20,5 L4,5 Z M7,9 C6.44771525,9 6,8.55228475 6,8 C6,7.44771525 6.44771525,7 7,7 L18,7 C18.5522847,7 19,7.44771525 19,8 C19,8.55228475 18.5522847,9 18,9 L7,9 Z M6,13 C5.44771525,13 5,12.5522847 5,12 C5,11.4477153 5.44771525,11 6,11 L19,11 C19.5522847,11 20,11.4477153 20,12 C20,12.5522847 19.5522847,13 19,13 L6,13 Z M4,17 C3.44771525,17 3,16.5522847 3,16 C3,15.4477153 3.44771525,15 4,15 L20,15 C20.5522847,15 21,15.4477153 21,16 C21,16.5522847 20.5522847,17 20,17 L4,17 Z M7,21 C6.44771525,21 6,20.5522847 6,20 C6,19.4477153 6.44771525,19 7,19 L18,19 C18.5522847,19 19,19.4477153 19,20 C19,20.5522847 18.5522847,21 18,21 L7,21 Z"/>
</svg>

<svg xmlns="http://www.w3.org/2000/svg" width="24" height="24" viewBox="0 0 24 24"><path fill="#758CA3" fill-rule="evenodd" d="M4 5c-.5523 0-1-.4477-1-1s.4477-1 1-1h16c.5523 0 1 .4477 1 1s-.4477 1-1 1H4zm3 4c-.5523 0-1-.4477-1-1s.4477-1 1-1h11c.5523 0 1 .4477 1 1s-.4477 1-1 1H7zm-1 4c-.5523 0-1-.4477-1-1s.4477-1 1-1h13c.5523 0 1 .4477 1 1s-.4477 1-1 1H6zm-2 4c-.5523 0-1-.4477-1-1s.4477-1 1-1h16c.5523 0 1 .4477 1 1s-.4477 1-1 1H4zm3 4c-.5523 0-1-.4477-1-1s.4477-1 1-1h11c.5523 0 1 .4477 1 1s-.4477 1-1 1H7z"/></svg>
